src/main/resources/icons/SpringApiIcons/icons/gutter/spring.svg

<svg xmlns="http://www.w3.org/2000/svg" width="12" height="12" viewBox="0 0 12 12">
  <path fill="#62B543" fill-opacity=".7" fill-rule="evenodd" d="M10.9876486,9.31581039 C9.2041121,11.6902417 5.39677895,10.8935056 2.95471935,11.0039443 C2.95471935,11.0039443 2.52242657,11.0284862 2.08662635,11.100359 C2.08662635,11.100359 2.25147633,11.0302392 2.46192312,10.9574899 C4.17618758,10.3649777 4.98728458,10.2457741 6.02987304,9.7102342 C7.98702817,8.70752122 9.93629155,6.52416631 10.3317561,4.25579116 C9.58642376,6.43826957 7.31973648,8.31572691 5.25648109,9.07652661 C3.84298017,9.59716604 1.28780541,10.1055345 1.28780541,10.106411 L1.18433574,10.0511917 C-0.553603985,9.20624822 -0.601831374,5.44519807 2.55311673,4.23300223 C3.93680436,3.70096834 5.25998854,3.99371845 6.7550376,3.63698403 C8.35004888,3.25833717 10.1967194,2.05928879 10.947313,0.5 C11.789977,2.99626446 12.8009985,6.90106018 10.9876486,9.31581039 Z"/>
</svg>

<svg xmlns="http://www.w3.org/2000/svg" width="12" height="12" viewBox="0 0 12 12"><rect id="frame" width="12" height="12" fill="none"/><path fill="#62B543" fill-opacity=".7" fill-rule="evenodd" d="M10.988 9.316c-1.784 2.374-5.591 1.578-8.033 1.688 0 0-.433.024-.868.096 0 0 .164-.07.375-.143 1.714-.592 2.525-.711 3.568-1.247 1.957-1.002 3.906-3.186 4.302-5.454-.746 2.182-3.012 4.06-5.076 4.82-1.413.521-3.968 1.03-3.968 1.03l-.104-.055c-1.738-.845-1.786-4.606 1.37-5.818 1.383-.532 2.706-.24 4.201-.596C8.35 3.258 10.197 2.059 10.947.5c.843 2.496 1.854 6.401.04 8.816z"/></svg>
